X:1
T:Title
%%score { ( 1 4 ) | ( 2 3 ) }
L:1/8
M:4/4
K:G
V:1 treble nm="Grand Piano"
V:4 treble 
V:2 bass 
V:3 bass 
V:1
 z4 z[Q:1/4=100] BAG | [A,F]3 c [Ec]c B>_B | [DB]4- [DB]BAG | [A,F]3 G AE [DF]>E | %4
 [B,D]4- [B,D]BAG | [A,F]3 c [Ec]c B>_B | [DB]4- [DB]BBB | [FA]3 d d^c[GB][Gc] | %8
[M:11/16] [Fd]/-[Fd]/-[Fd]/-[Fd]/-[Fd]-<[Fd][Fc]3/2 |[M:9/16] B3/2B3/2B3/2 | %10
[M:4/4] [Gc]c [Fc]2- [Fc]c[Fd]c | z2 B4 z2 | [Gc]c [Fc]2 [ce]d [_B^c]2 | [Bd]4- [Bd]BBB | %14
 [Gc]c [Fc]2- [Fc]e[Bd][Ac] | [Ac]B z2 B,B[F_B]B | [DB]B [Bd]4 [Ac]2 | %17
[M:11/16] [GB]/-[GB]/-[GB]/-[GB]/-[GB]/-[GB]/-[GB]/-[GB]-<[GB] |] %18
V:2
 z4 z DCB, | D,,D,D,E z E D>^C | G,,^C,D,G, B,DCB, | D,,D,D,B, CC z z/ C/ | G,,^C,D,G, D,DCB, | %5
 D,,D,D,E z E D>^C | G,,^C,D,G, B,[K:treble]DE=F | z4[K:treble] [A,E]2[K:bass] z2 | %8
[M:11/16] [D,,D,]-<[D,,D,]A,-<A,[K:treble]D3/2 |[M:9/16] D3/2E3/2G3/2 | %10
[M:4/4][K:bass] z F [D,F,C]2 z E z E | z D D2- [D,G,D][K:treble]GAG | %12
 z F [D,F,C]2 z[K:treble] B[K:bass] [D,F,C]2 | G,,D,G,B,[K:treble] DDEG | %14
 z F [D,F,C]2 z[K:treble] c[K:bass]D,,^D,, | z G [E,G,B,]2 [E,G,]G z E | %16
 z G [D,G,B,]2 D,,2 [D,F,C]2 |[M:11/16] G,,B,,D,B,G,3/2 |] %18
V:3
 x8 | z4 [D,F,]2 [D,F,]2 | x8 | z4 [D,F,]2 D,,2 | x8 | z4 [D,F,]2 [D,F,]2 | x5[K:treble] x3 | %7
 A,,A,A,[K:treble]F GG[K:bass] [A,,A,]2 |[M:11/16] x4[K:treble] x3/2 |[M:9/16] x9/2 | %10
[M:4/4][K:bass] A,,2 z2 D,,2 [E,F,C]2 | G,,2 [D,G,B,]2 z4[K:treble] | %12
 A,,2 z2 D,,2[K:treble][K:bass] z2 | x4[K:treble] x4 | A,,2 z2 D,,2[K:treble][K:bass] z2 | %15
 E,,2 z2 z2 ^C,,2 | D,,2 z2 z4 |[M:11/16] x11/2 |] %18
V:4
 x8 | x8 | x8 | x8 | x8 | x8 | x8 | x8 |[M:11/16] x11/2 |[M:9/16] x9/2 |[M:4/4] x8 | %11
 [Ec]B z2 B,BBB | x8 | x8 | x8 | z2 [GB]4 z2 | x8 |[M:11/16] z/ z/ z/ z/ z/ z/ z D3/2 |] %18

